X:40
T:Green Holly Bush Jig
R:jig
C:Bruce Osborne - January 2002
Z:bosborne@kos.net
M:6/8
L:1/8
K:A
A|Ace ece|fdf ecA|efe cBA|EGB dcB|
Ace ece|fdf ecA|fga ecA|EGB A2:|
|:A|Ace ece|fag fec|Ace ecA|EGB BGB|
Ace ece|fag fec|aga ecA|BAG A2:|
